rocket-bi-web/src/assets/icon/charts/ic_map.svg

<svg width="50" height="50" viewBox="0 0 50 50" fill="none" xmlns="http://www.w3.org/2000/svg">
<g clip-path="url(#clip0_3860_75958)">
<path d="M24.5871 0.00788281C15.0341 0.167883 6.41709 5.76188 2.37309 14.3929L2.21009 14.7459L1.70009 15.9709L1.54009 16.3959C-3.09791 28.9919 3.07009 43.0849 15.6021 48.1649C18.5881 49.3749 21.7801 49.9969 25.0021 49.9949C38.8071 49.9969 50.0001 38.8079 50.0001 25.0049C50.0031 11.1999 38.8141 0.00788281 25.0101 0.00488281L24.5871 0.00788281ZM25.0101 2.00488C37.7101 2.00688 48.0041 12.3049 48.0011 25.0029C48.0001 37.7029 37.7021 47.9969 25.0021 47.9949C22.0371 47.9969 19.1001 47.4249 16.3521 46.3109C4.70909 41.5909 -0.962914 28.4079 3.55209 16.7309L3.83009 16.0349L3.86709 15.9489C7.43509 7.61688 15.5571 2.16988 24.5921 2.00888L25.0101 2.00488Z" fill="url(#paint0_linear_3860_75958)"/>
<path fill-rule="evenodd" clip-rule="evenodd" d="M43.833 37.0999L42.5979 35.8669V32.9989C42.5999 32.8749 42.572 32.7519 42.518 32.6409L39.3989 26.4109V23.4009C39.3989 23.1329 39.2649 22.8839 39.0429 22.7349L36.643 21.1349C36.456 21.0099 36.2229 20.9699 36.0029 21.0249L33.0649 21.7589L28.129 19.6409L27.45 14.8839L29.332 13.0029H33.372L34.7319 15.0459C34.8549 15.2299 35.0479 15.3549 35.2659 15.3909L40.066 16.1909C40.194 16.2119 40.326 16.2019 40.449 16.1609L44.8689 14.6869C48.576 21.8019 48.1789 30.3589 43.8289 37.0999H43.833Z" fill="url(#paint1_linear_3860_75958)"/>
<path fill-rule="evenodd" clip-rule="evenodd" d="M40.5319 8.88662L39.2319 9.75362L35.6049 9.02762L33.2529 8.24462C33.1089 8.19562 32.9529 8.18962 32.8069 8.22762L29.8329 8.97062L28.5289 8.53562L29.4949 6.60362H32.1999C32.3239 6.60362 32.4469 6.57462 32.5579 6.51962L35.3249 5.13562C37.2309 6.13062 38.9849 7.39362 40.5319 8.88562V8.88662ZM16.2409 4.39062L18.1609 5.67062C18.2549 5.73262 18.3609 5.77462 18.4739 5.79362L22.3499 6.43962L21.9709 7.57162L19.9509 8.24563C19.7709 8.30562 19.6169 8.42862 19.5189 8.59162L17.2219 12.4196L13.5319 14.6336L8.09295 15.4106C7.69895 15.4666 7.40595 15.8036 7.40495 16.2016V18.6016C7.40495 18.8136 7.48895 19.0166 7.63995 19.1666L9.00495 20.5316V21.9056L5.67795 19.6876L4.47095 16.0666C6.76695 10.8196 10.9759 6.64462 16.2409 4.39062Z" fill="url(#paint2_linear_3860_75958)"/>
<path fill-rule="evenodd" clip-rule="evenodd" d="M13.9639 30.6146L10.3489 29.8906L9.00488 27.2106V25.3306L11.9849 22.3506L13.0879 24.5576C13.2239 24.8286 13.5009 24.9996 13.8039 24.9996H18.9499L21.1169 28.6106C21.2619 28.8516 21.5219 28.9986 21.8029 28.9986H24.0259L23.4659 31.8036L20.4379 34.8326C20.2879 34.9826 20.2029 35.1856 20.2029 35.3976V37.3976L17.3229 39.5576C17.1219 39.7076 17.0029 39.9446 17.0029 40.1976V43.0856L16.0089 42.7556L14.6039 39.2436V31.3986C14.6039 31.0186 14.3369 30.6906 13.9639 30.6146Z" fill="url(#paint3_linear_3860_75958)"/>
</g>
<defs>
<linearGradient id="paint0_linear_3860_75958" x1="-8.41698e-08" y1="25.2379" x2="50.0001" y2="25.2379" gradientUnits="userSpaceOnUse">
<stop stop-color="#A855F7"/>
<stop offset="1" stop-color="#3B82F6"/>
</linearGradient>
<linearGradient id="paint1_linear_3860_75958" x1="20.5891" y1="63.1548" x2="50.0929" y2="59.2282" gradientUnits="userSpaceOnUse">
<stop stop-color="#568E8B"/>
<stop offset="0.776042" stop-color="#67F5ED"/>
</linearGradient>
<linearGradient id="paint2_linear_3860_75958" x1="4.47095" y1="13.2315" x2="40.5319" y2="13.2315" gradientUnits="userSpaceOnUse">
<stop stop-color="#A855F7"/>
<stop offset="1" stop-color="#3B82F6"/>
</linearGradient>
<linearGradient id="paint3_linear_3860_75958" x1="5.18955" y1="38.4202" x2="21.6345" y2="37.9613" gradientUnits="userSpaceOnUse">
<stop stop-color="#F377B3"/>
<stop offset="1" stop-color="#FEB3DD"/>
</linearGradient>
<clipPath id="clip0_3860_75958">
<rect width="50" height="50" fill="white"/>
</clipPath>
</defs>
</svg>

<svg xmlns="http://www.w3.org/2000/svg" width="50" height="50" viewBox="0 0 50 50">
    <g fill="none" fill-rule="evenodd">
        <g>
            <g>
                <g>
                    <g>
                        <g transform="translate(-454 -562) translate(372 106) translate(0 109) translate(48 324) translate(34 23.005)">
                            <rect width="48" height="48" x="1" y=".995" rx="2"/>
                            <path fill="#9799AE" fill-rule="nonzero" d="M24.587.003c-9.553.16-18.17 5.754-22.214 14.385l-.163.353-.51 1.225-.16.425C-3.098 28.987 3.07 43.08 15.602 48.16c2.986 1.21 6.178 1.832 9.4 1.83C38.807 49.992 50 38.803 50 25 50.003 11.195 38.814.003 25.01 0l-.423.003zM25.01 2c12.7.002 22.994 10.3 22.991 22.998C48 37.698 37.702 47.992 25.002 47.99c-2.965.002-5.902-.57-8.65-1.684C4.709 41.586-.963 28.403 3.552 16.726l.278-.696.037-.086c3.568-8.332 11.69-13.779 20.725-13.94L25.01 2z"/>
                            <path fill="#B7C5FF" d="M43.833 37.095l-1.235-1.233v-2.868c.002-.124-.026-.247-.08-.358l-3.119-6.23v-3.01c0-.268-.134-.517-.356-.666l-2.4-1.6c-.187-.125-.42-.165-.64-.11l-2.938.734-4.936-2.118-.679-4.757 1.882-1.881h4.04l1.36 2.043c.123.184.316.309.534.345l4.8.8c.128.021.26.011.383-.03l4.42-1.474c3.707 7.115 3.31 15.672-1.04 22.413h.004z"/>
                            <path fill="#7F98FE" d="M40.532 8.882l-1.3.867-3.627-.726-2.352-.783c-.144-.049-.3-.055-.446-.017l-2.974.743-1.304-.435.966-1.932H32.2c.124 0 .247-.029.358-.084l2.767-1.384c1.906.995 3.66 2.258 5.207 3.75zM16.241 4.386l1.92 1.28c.094.062.2.104.313.123l3.876.646-.379 1.132-2.02.674c-.18.06-.334.183-.432.346l-2.297 3.828-3.69 2.214-5.439.777c-.394.056-.687.393-.688.791v2.4c0 .212.084.415.235.565l1.365 1.365v1.374l-3.327-2.218-1.207-3.621c2.296-5.247 6.505-9.422 11.77-11.676z"/>
                            <path fill="#57F" d="M13.964 30.61l-3.615-.724-1.344-2.68v-1.88l2.98-2.98 1.103 2.207c.136.271.413.442.716.442h5.146l2.167 3.611c.145.241.405.388.686.388h2.223l-.56 2.805-3.028 3.029c-.15.15-.235.353-.235.565v2l-2.88 2.16c-.201.15-.32.387-.32.64v2.888l-.994-.33-1.405-3.512v-7.845c0-.38-.267-.708-.64-.784z"/>
                        </g>
                    </g>
                </g>
            </g>
        </g>
    </g>
</svg>
